src/assets/icons/svg/logininfor.svg

<?xml version="1.0" standalone="no"?><!DOCTYPE svg PUBLIC "-//W3C//DTD SVG 1.1//EN" "http://www.w3.org/Graphics/SVG/1.1/DTD/svg11.dtd"><svg t="1566036016814" class="icon" viewBox="0 0 1024 1024" version="1.1" xmlns="http://www.w3.org/2000/svg" p-id="5261" xmlns:xlink="http://www.w3.org/1999/xlink" width="200" height="200"><defs><style type="text/css"></style></defs><path d="M896 128h-85.333333a42.666667 42.666667 0 0 0 0 85.333333h42.666666v640H170.666667V213.333333h42.666666a42.666667 42.666667 0 0 0 0-85.333333H128a42.666667 42.666667 0 0 0-42.666667 42.666667v725.333333a42.666667 42.666667 0 0 0 42.666667 42.666667h768a42.666667 42.666667 0 0 0 42.666667-42.666667V170.666667a42.666667 42.666667 0 0 0-42.666667-42.666667z" p-id="5262"></path><path d="M341.333333 298.666667a42.666667 42.666667 0 0 0 42.666667-42.666667V128a42.666667 42.666667 0 0 0-85.333333 0v128a42.666667 42.666667 0 0 0 42.666666 42.666667zM512 298.666667a42.666667 42.666667 0 0 0 42.666667-42.666667V128a42.666667 42.666667 0 0 0-85.333334 0v128a42.666667 42.666667 0 0 0 42.666667 42.666667zM682.666667 298.666667a42.666667 42.666667 0 0 0 42.666666-42.666667V128a42.666667 42.666667 0 0 0-85.333333 0v128a42.666667 42.666667 0 0 0 42.666667 42.666667zM341.333333 768a42.666667 42.666667 0 0 0 42.666667-42.666667 128 128 0 0 1 256 0 42.666667 42.666667 0 0 0 85.333333 0 213.333333 213.333333 0 0 0-107.52-184.32A128 128 0 0 0 640 469.333333a128 128 0 0 0-256 0 128 128 0 0 0 22.186667 71.68A213.333333 213.333333 0 0 0 298.666667 725.333333a42.666667 42.666667 0 0 0 42.666666 42.666667z m128-298.666667a42.666667 42.666667 0 1 1 42.666667 42.666667 42.666667 42.666667 0 0 1-42.666667-42.666667z" p-id="5263"></path></svg>

<svg xmlns="http://www.w3.org/2000/svg" width="200" height="200" class="icon" viewBox="0 0 1024 1024"><path d="M896 128h-85.333a42.667 42.667 0 0 0 0 85.333h42.666v640H170.667v-640h42.666a42.667 42.667 0 0 0 0-85.333H128a42.667 42.667 0 0 0-42.667 42.667V896A42.667 42.667 0 0 0 128 938.667h768A42.667 42.667 0 0 0 938.667 896V170.667A42.667 42.667 0 0 0 896 128z"/><path d="M341.333 298.667A42.667 42.667 0 0 0 384 256V128a42.667 42.667 0 0 0-85.333 0v128a42.667 42.667 0 0 0 42.666 42.667zm170.667 0A42.667 42.667 0 0 0 554.667 256V128a42.667 42.667 0 0 0-85.334 0v128A42.667 42.667 0 0 0 512 298.667zm170.667 0A42.667 42.667 0 0 0 725.333 256V128A42.667 42.667 0 0 0 640 128v128a42.667 42.667 0 0 0 42.667 42.667zM341.333 768A42.667 42.667 0 0 0 384 725.333a128 128 0 0 1 256 0 42.667 42.667 0 0 0 85.333 0 213.333 213.333 0 0 0-107.52-184.32A128 128 0 0 0 640 469.333a128 128 0 0 0-256 0 128 128 0 0 0 22.187 71.68 213.333 213.333 0 0 0-107.52 184.32A42.667 42.667 0 0 0 341.333 768zm128-298.667A42.667 42.667 0 1 1 512 512a42.667 42.667 0 0 1-42.667-42.667z"/></svg>
